images/5459694.svg

<?xml version="1.0" encoding="UTF-8"?>
<svg xmlns="http://www.w3.org/2000/svg" xmlns:xlink="http://www.w3.org/1999/xlink" width="300pt" height="300pt" viewBox="0 0 300 300" version="1.1">
<defs>
<g>
<symbol overflow="visible" id="glyph0-0">
<path style="stroke:none;" d="M 0.453125 1.59375 L 0.453125 -6.34375 L 4.953125 -6.34375 L 4.953125 1.59375 Z M 0.953125 1.09375 L 4.453125 1.09375 L 4.453125 -5.84375 L 0.953125 -5.84375 Z M 0.953125 1.09375 "/>
</symbol>
<symbol overflow="visible" id="glyph0-1">
<path style="stroke:none;" d="M 0.890625 -6.5625 L 2.078125 -6.5625 L 4.984375 -1.078125 L 4.984375 -6.5625 L 5.84375 -6.5625 L 5.84375 0 L 4.65625 0 L 1.75 -5.484375 L 1.75 0 L 0.890625 0 Z M 0.890625 -6.5625 "/>
</symbol>
<symbol overflow="visible" id="glyph0-2">
<path style="stroke:none;" d="M 3.546875 -5.953125 C 2.898438 -5.953125 2.382812 -5.710938 2 -5.234375 C 1.625 -4.753906 1.4375 -4.101562 1.4375 -3.28125 C 1.4375 -2.445312 1.625 -1.789062 2 -1.3125 C 2.382812 -0.832031 2.898438 -0.59375 3.546875 -0.59375 C 4.191406 -0.59375 4.703125 -0.832031 5.078125 -1.3125 C 5.453125 -1.789062 5.640625 -2.445312 5.640625 -3.28125 C 5.640625 -4.101562 5.453125 -4.753906 5.078125 -5.234375 C 4.703125 -5.710938 4.191406 -5.953125 3.546875 -5.953125 Z M 3.546875 -6.6875 C 4.460938 -6.6875 5.195312 -6.375 5.75 -5.75 C 6.300781 -5.132812 6.578125 -4.3125 6.578125 -3.28125 C 6.578125 -2.238281 6.300781 -1.410156 5.75 -0.796875 C 5.195312 -0.179688 4.460938 0.125 3.546875 0.125 C 2.617188 0.125 1.878906 -0.179688 1.328125 -0.796875 C 0.773438 -1.410156 0.5 -2.238281 0.5 -3.28125 C 0.5 -4.3125 0.773438 -5.132812 1.328125 -5.75 C 1.878906 -6.375 2.617188 -6.6875 3.546875 -6.6875 Z M 3.546875 -6.6875 "/>
</symbol>
<symbol overflow="visible" id="glyph0-3">
<path style="stroke:none;" d="M 0.890625 -6.5625 L 1.765625 -6.5625 L 1.765625 -3.875 L 5 -3.875 L 5 -6.5625 L 5.890625 -6.5625 L 5.890625 0 L 5 0 L 5 -3.125 L 1.765625 -3.125 L 1.765625 0 L 0.890625 0 Z M 0.890625 -6.5625 "/>
</symbol>
</g>
</defs>
<g id="surface45533">
<rect x="0" y="0" width="300" height="300" style="fill:rgb(100%,100%,100%);fill-opacity:1;stroke:none;"/>
<path style="fill:none;stroke-width:1.2;stroke-linecap:butt;stroke-linejoin:miter;stroke:rgb(0%,0%,0%);stroke-opacity:1;stroke-miterlimit:10;" d="M 172.652344 171.265625 L 167.304688 150.738281 "/>
<path style="fill:none;stroke-width:1.2;stroke-linecap:butt;stroke-linejoin:miter;stroke:rgb(0%,0%,0%);stroke-opacity:1;stroke-miterlimit:10;" d="M 167.304688 150.738281 L 157.808594 131.773438 "/>
<path style="fill:none;stroke-width:1.2;stroke-linecap:butt;stroke-linejoin:miter;stroke:rgb(0%,0%,0%);stroke-opacity:1;stroke-miterlimit:10;" d="M 167.304688 150.738281 L 147.449219 158.203125 "/>
<path style="fill:none;stroke-width:1.2;stroke-linecap:butt;stroke-linejoin:miter;stroke:rgb(0%,0%,100%);stroke-opacity:1;stroke-miterlimit:10;" d="M 188.277344 147.566406 L 177.792969 149.152344 "/>
<path style="fill:none;stroke-width:1.2;stroke-linecap:butt;stroke-linejoin:miter;stroke:rgb(0%,0%,0%);stroke-opacity:1;stroke-miterlimit:10;" d="M 177.792969 149.152344 L 167.304688 150.738281 "/>
<path style="fill:none;stroke-width:1.2;stroke-linecap:butt;stroke-linejoin:miter;stroke:rgb(0%,0%,0%);stroke-opacity:1;stroke-miterlimit:10;" d="M 157.808594 131.773438 L 172.910156 116.878906 "/>
<path style="fill:none;stroke-width:1.2;stroke-linecap:butt;stroke-linejoin:miter;stroke:rgb(0%,0%,0%);stroke-opacity:1;stroke-miterlimit:10;" d="M 162.820312 133.839844 L 174.902344 121.921875 "/>
<path style="fill:none;stroke-width:1.2;stroke-linecap:butt;stroke-linejoin:miter;stroke:rgb(0%,0%,0%);stroke-opacity:1;stroke-miterlimit:10;" d="M 172.910156 116.878906 L 191.742188 126.640625 "/>
<path style="fill:none;stroke-width:1.2;stroke-linecap:butt;stroke-linejoin:miter;stroke:rgb(0%,0%,0%);stroke-opacity:1;stroke-miterlimit:10;" d="M 191.742188 126.640625 L 190.007812 137.105469 "/>
<path style="fill:none;stroke-width:1.2;stroke-linecap:butt;stroke-linejoin:miter;stroke:rgb(0%,0%,100%);stroke-opacity:1;stroke-miterlimit:10;" d="M 190.007812 137.105469 L 188.277344 147.566406 "/>
<path style="fill:none;stroke-width:1.2;stroke-linecap:butt;stroke-linejoin:miter;stroke:rgb(0%,0%,100%);stroke-opacity:1;stroke-miterlimit:10;" d="M 188.277344 147.566406 L 195.726562 155.117188 "/>
<path style="fill:none;stroke-width:1.2;stroke-linecap:butt;stroke-linejoin:miter;stroke:rgb(0%,0%,0%);stroke-opacity:1;stroke-miterlimit:10;" d="M 195.726562 155.117188 L 203.171875 162.667969 "/>
<path style=" stroke:none;fill-rule:nonzero;fill:rgb(100%,100%,100%);fill-opacity:1;" d="M 185.277344 142.066406 L 192.277344 142.066406 L 192.277344 153.066406 L 185.277344 153.066406 Z M 185.277344 142.066406 "/>
<g style="fill:rgb(0%,0%,100%);fill-opacity:1;">
  <use xlink:href="#glyph0-1" x="185.277344" y="150.729492"/>
</g>
<path style="fill:none;stroke-width:1.2;stroke-linecap:butt;stroke-linejoin:miter;stroke:rgb(0%,0%,0%);stroke-opacity:1;stroke-miterlimit:10;" d="M 200.765625 162.007812 L 197.949219 172.230469 "/>
<path style="fill:none;stroke-width:1.2;stroke-linecap:butt;stroke-linejoin:miter;stroke:rgb(100%,0%,0%);stroke-opacity:1;stroke-miterlimit:10;" d="M 197.949219 172.230469 L 195.132812 182.457031 "/>
<path style="fill:none;stroke-width:1.2;stroke-linecap:butt;stroke-linejoin:miter;stroke:rgb(0%,0%,0%);stroke-opacity:1;stroke-miterlimit:10;" d="M 205.578125 163.332031 L 202.761719 173.558594 "/>
<path style="fill:none;stroke-width:1.2;stroke-linecap:butt;stroke-linejoin:miter;stroke:rgb(100%,0%,0%);stroke-opacity:1;stroke-miterlimit:10;" d="M 202.761719 173.558594 L 199.945312 183.78125 "/>
<path style="fill:none;stroke-width:1.2;stroke-linecap:butt;stroke-linejoin:miter;stroke:rgb(0%,0%,0%);stroke-opacity:1;stroke-miterlimit:10;" d="M 203.171875 162.667969 L 223.699219 157.320312 "/>
<path style=" stroke:none;fill-rule:nonzero;fill:rgb(100%,100%,100%);fill-opacity:1;" d="M 193.539062 177.621094 L 201.539062 177.621094 L 201.539062 188.621094 L 193.539062 188.621094 Z M 193.539062 177.621094 "/>
<g style="fill:rgb(100%,0%,0%);fill-opacity:1;">
  <use xlink:href="#glyph0-2" x="193.539062" y="186.28418"/>
</g>
<path style="fill:none;stroke-width:1.2;stroke-linecap:butt;stroke-linejoin:miter;stroke:rgb(0%,0%,0%);stroke-opacity:1;stroke-miterlimit:10;" d="M 223.699219 157.320312 L 238.59375 172.425781 "/>
<path style="fill:none;stroke-width:1.2;stroke-linecap:butt;stroke-linejoin:miter;stroke:rgb(0%,0%,0%);stroke-opacity:1;stroke-miterlimit:10;" d="M 228.742188 155.328125 L 240.65625 167.410156 "/>
<path style="fill:none;stroke-width:1.2;stroke-linecap:butt;stroke-linejoin:miter;stroke:rgb(0%,0%,0%);stroke-opacity:1;stroke-miterlimit:10;" d="M 229.328125 136.871094 L 223.699219 157.320312 "/>
<path style="fill:none;stroke-width:1.2;stroke-linecap:butt;stroke-linejoin:miter;stroke:rgb(0%,0%,0%);stroke-opacity:1;stroke-miterlimit:10;" d="M 238.59375 172.425781 L 259.117188 167.078125 "/>
<path style="fill:none;stroke-width:1.2;stroke-linecap:butt;stroke-linejoin:miter;stroke:rgb(0%,0%,0%);stroke-opacity:1;stroke-miterlimit:10;" d="M 259.117188 167.078125 L 264.75 146.628906 "/>
<path style="fill:none;stroke-width:1.2;stroke-linecap:butt;stroke-linejoin:miter;stroke:rgb(0%,0%,0%);stroke-opacity:1;stroke-miterlimit:10;" d="M 254.871094 163.707031 L 259.375 147.347656 "/>
<path style="fill:none;stroke-width:1.2;stroke-linecap:butt;stroke-linejoin:miter;stroke:rgb(0%,0%,0%);stroke-opacity:1;stroke-miterlimit:10;" d="M 264.75 146.628906 L 249.855469 131.523438 "/>
<path style="fill:none;stroke-width:1.2;stroke-linecap:butt;stroke-linejoin:miter;stroke:rgb(0%,0%,0%);stroke-opacity:1;stroke-miterlimit:10;" d="M 249.855469 131.523438 L 229.328125 136.871094 "/>
<path style="fill:none;stroke-width:1.2;stroke-linecap:butt;stroke-linejoin:miter;stroke:rgb(0%,0%,0%);stroke-opacity:1;stroke-miterlimit:10;" d="M 249.0625 136.890625 L 232.640625 141.167969 "/>
<path style="fill:none;stroke-width:1.2;stroke-linecap:butt;stroke-linejoin:miter;stroke:rgb(0%,0%,0%);stroke-opacity:1;stroke-miterlimit:10;" d="M 144.988281 157.796875 L 143.257812 168.261719 "/>
<path style="fill:none;stroke-width:1.2;stroke-linecap:butt;stroke-linejoin:miter;stroke:rgb(100%,0%,0%);stroke-opacity:1;stroke-miterlimit:10;" d="M 143.257812 168.261719 L 141.523438 178.722656 "/>
<path style="fill:none;stroke-width:1.2;stroke-linecap:butt;stroke-linejoin:miter;stroke:rgb(0%,0%,0%);stroke-opacity:1;stroke-miterlimit:10;" d="M 149.914062 158.613281 L 148.179688 169.074219 "/>
<path style="fill:none;stroke-width:1.2;stroke-linecap:butt;stroke-linejoin:miter;stroke:rgb(100%,0%,0%);stroke-opacity:1;stroke-miterlimit:10;" d="M 148.179688 169.074219 L 146.449219 179.539062 "/>
<path style="fill:none;stroke-width:1.2;stroke-linecap:butt;stroke-linejoin:miter;stroke:rgb(0%,0%,0%);stroke-opacity:1;stroke-miterlimit:10;" d="M 147.449219 158.203125 L 139.253906 151.472656 "/>
<path style="fill:none;stroke-width:1.2;stroke-linecap:butt;stroke-linejoin:miter;stroke:rgb(0%,0%,100%);stroke-opacity:1;stroke-miterlimit:10;" d="M 139.253906 151.472656 L 131.058594 144.742188 "/>
<path style=" stroke:none;fill-rule:nonzero;fill:rgb(100%,100%,100%);fill-opacity:1;" d="M 139.988281 173.628906 L 147.988281 173.628906 L 147.988281 184.628906 L 139.988281 184.628906 Z M 139.988281 173.628906 "/>
<g style="fill:rgb(100%,0%,0%);fill-opacity:1;">
  <use xlink:href="#glyph0-2" x="139.988281" y="182.291992"/>
</g>
<path style="fill:none;stroke-width:1.2;stroke-linecap:butt;stroke-linejoin:miter;stroke:rgb(0%,0%,100%);stroke-opacity:1;stroke-miterlimit:10;" d="M 131.058594 144.742188 L 121.132812 148.472656 "/>
<path style="fill:none;stroke-width:1.2;stroke-linecap:butt;stroke-linejoin:miter;stroke:rgb(0%,0%,0%);stroke-opacity:1;stroke-miterlimit:10;" d="M 121.132812 148.472656 L 111.203125 152.207031 "/>
<path style=" stroke:none;fill-rule:nonzero;fill:rgb(100%,100%,100%);fill-opacity:1;" d="M 124.058594 139.242188 L 138.058594 139.242188 L 138.058594 150.242188 L 124.058594 150.242188 Z M 124.058594 139.242188 "/>
<g style="fill:rgb(0%,0%,100%);fill-opacity:1;">
  <use xlink:href="#glyph0-1" x="124.058594" y="147.905273"/>
  <use xlink:href="#glyph0-3" x="131.036133" y="147.905273"/>
</g>
<path style="fill:none;stroke-width:1.2;stroke-linecap:butt;stroke-linejoin:miter;stroke:rgb(0%,0%,0%);stroke-opacity:1;stroke-miterlimit:10;" d="M 111.203125 152.207031 L 94.8125 138.742188 "/>
<path style="fill:none;stroke-width:1.2;stroke-linecap:butt;stroke-linejoin:miter;stroke:rgb(0%,0%,0%);stroke-opacity:1;stroke-miterlimit:10;" d="M 94.8125 138.742188 L 84.886719 142.472656 "/>
<path style="fill:none;stroke-width:1.2;stroke-linecap:butt;stroke-linejoin:miter;stroke:rgb(0%,0%,100%);stroke-opacity:1;stroke-miterlimit:10;" d="M 84.886719 142.472656 L 74.960938 146.207031 "/>
<path style="fill:none;stroke-width:1.2;stroke-linecap:butt;stroke-linejoin:miter;stroke:rgb(0%,0%,100%);stroke-opacity:1;stroke-miterlimit:10;" d="M 74.960938 146.207031 L 66.761719 139.476562 "/>
<path style="fill:none;stroke-width:1.2;stroke-linecap:butt;stroke-linejoin:miter;stroke:rgb(0%,0%,0%);stroke-opacity:1;stroke-miterlimit:10;" d="M 66.761719 139.476562 L 58.566406 132.742188 "/>
<path style="fill:none;stroke-width:1.2;stroke-linecap:butt;stroke-linejoin:miter;stroke:rgb(0%,0%,0%);stroke-opacity:1;stroke-miterlimit:10;" d="M 71.496094 167.132812 L 73.226562 156.667969 "/>
<path style="fill:none;stroke-width:1.2;stroke-linecap:butt;stroke-linejoin:miter;stroke:rgb(0%,0%,100%);stroke-opacity:1;stroke-miterlimit:10;" d="M 73.226562 156.667969 L 74.960938 146.207031 "/>
<path style=" stroke:none;fill-rule:nonzero;fill:rgb(100%,100%,100%);fill-opacity:1;" d="M 71.960938 140.707031 L 78.960938 140.707031 L 78.960938 151.707031 L 71.960938 151.707031 Z M 71.960938 140.707031 "/>
<g style="fill:rgb(0%,0%,100%);fill-opacity:1;">
  <use xlink:href="#glyph0-1" x="71.960938" y="149.370117"/>
</g>
<path style="fill:none;stroke-width:1.2;stroke-linecap:butt;stroke-linejoin:miter;stroke:rgb(0%,0%,0%);stroke-opacity:1;stroke-miterlimit:10;" d="M 58.566406 132.742188 L 38.714844 140.207031 "/>
<path style="fill:none;stroke-width:1.2;stroke-linecap:butt;stroke-linejoin:miter;stroke:rgb(0%,0%,0%);stroke-opacity:1;stroke-miterlimit:10;" d="M 38.714844 140.207031 L 36.980469 150.671875 "/>
<path style="fill:none;stroke-width:1.2;stroke-linecap:butt;stroke-linejoin:miter;stroke:rgb(100%,0%,0%);stroke-opacity:1;stroke-miterlimit:10;" d="M 36.980469 150.671875 L 35.25 161.132812 "/>
<path style="fill:none;stroke-width:1.2;stroke-linecap:butt;stroke-linejoin:miter;stroke:rgb(100%,0%,0%);stroke-opacity:1;stroke-miterlimit:10;" d="M 35.25 161.132812 L 43.445312 167.867188 "/>
<path style="fill:none;stroke-width:1.2;stroke-linecap:butt;stroke-linejoin:miter;stroke:rgb(0%,0%,0%);stroke-opacity:1;stroke-miterlimit:10;" d="M 43.445312 167.867188 L 51.640625 174.597656 "/>
<path style=" stroke:none;fill-rule:nonzero;fill:rgb(100%,100%,100%);fill-opacity:1;" d="M 31.25 155.632812 L 39.25 155.632812 L 39.25 166.632812 L 31.25 166.632812 Z M 31.25 155.632812 "/>
<g style="fill:rgb(100%,0%,0%);fill-opacity:1;">
  <use xlink:href="#glyph0-2" x="31.25" y="164.295898"/>
</g>
<path style="fill:none;stroke-width:1.2;stroke-linecap:butt;stroke-linejoin:miter;stroke:rgb(0%,0%,0%);stroke-opacity:1;stroke-miterlimit:10;" d="M 51.640625 174.597656 L 71.496094 167.132812 "/>
</g>
</svg>

<svg xmlns="http://www.w3.org/2000/svg" xmlns:xlink="http://www.w3.org/1999/xlink" width="300pt" height="300pt" viewBox="0 0 300 300"><defs><symbol overflow="visible"><path d="M.453 1.594v-7.938h4.5v7.938zm.5-.5h3.5v-6.938h-3.5zm0 0"/></symbol><symbol overflow="visible" id="a"><path d="M.89-6.563H2.08l2.906 5.485v-5.484h.86V0H4.656L1.75-5.484V0H.89zm0 0"/></symbol><symbol overflow="visible" id="b"><path d="M3.547-5.953c-.65 0-1.164.242-1.547.72-.375.48-.563 1.13-.563 1.952 0 .835.188 1.49.563 1.967.383.48.898.72 1.547.72.644 0 1.156-.24 1.53-.72.376-.476.564-1.132.564-1.968 0-.822-.187-1.474-.562-1.954-.375-.477-.887-.72-1.53-.72zm0-.734c.914 0 1.648.312 2.203.937.55.617.828 1.438.828 2.47 0 1.042-.277 1.87-.828 2.483-.555.617-1.29.922-2.203.922-.93 0-1.668-.305-2.22-.922C.774-1.41.5-2.237.5-3.28c0-1.033.273-1.853.828-2.47.55-.625 1.29-.938 2.22-.938zm0 0"/></symbol><symbol overflow="visible" id="c"><path d="M.89-6.563h.876v2.688H5v-2.688h.89V0H5v-3.125H1.766V0H.89zm0 0"/></symbol></defs><g><path fill="#fff" d="M0 0h300v300H0z"/><path d="M172.652 171.266l-5.347-20.528M167.305 150.738l-9.496-18.965M167.305 150.738l-19.856 7.465" stroke-width="1.2" stroke="#000" stroke-miterlimit="10" fill="none"/><path d="M188.277 147.566l-10.484 1.586" stroke-width="1.2" stroke="#00f" stroke-miterlimit="10" fill="none"/><path d="M177.793 149.152l-10.488 1.586M157.81 131.773l15.1-14.894M162.82 133.84l12.082-11.918M172.91 116.88l18.832 9.76M191.742 126.64l-1.734 10.465" stroke-width="1.2" stroke="#000" stroke-miterlimit="10" fill="none"/><path d="M190.008 137.105l-1.73 10.46M188.277 147.566l7.45 7.55" stroke-width="1.2" stroke="#00f" stroke-miterlimit="10" fill="none"/><path d="M195.727 155.117l7.445 7.55" stroke-width="1.2" stroke="#000" stroke-miterlimit="10" fill="none"/><path d="M185.277 142.066h7v11h-7zm0 0" fill="#fff"/><use xlink:href="#a" x="185.277" y="150.729" fill="#00f"/><path d="M200.766 162.008l-2.817 10.222" stroke-width="1.2" stroke="#000" stroke-miterlimit="10" fill="none"/><path d="M197.95 172.23l-2.817 10.227" stroke-width="1.2" stroke="#f00" stroke-miterlimit="10" fill="none"/><path d="M205.578 163.332l-2.816 10.227" stroke-width="1.2" stroke="#000" stroke-miterlimit="10" fill="none"/><path d="M202.762 173.56l-2.817 10.22" stroke-width="1.2" stroke="#f00" stroke-miterlimit="10" fill="none"/><path d="M203.172 162.668l20.527-5.348" stroke-width="1.2" stroke="#000" stroke-miterlimit="10" fill="none"/><path d="M193.54 177.62h8v11h-8zm0 0" fill="#fff"/><use xlink:href="#b" x="193.539" y="186.284" fill="#f00"/><path d="M223.7 157.32l14.894 15.106M228.742 155.328l11.914 12.082M229.328 136.87l-5.63 20.45M238.594 172.426l20.523-5.348M259.117 167.078l5.633-20.45M254.87 163.707l4.505-16.36M264.75 146.63l-14.895-15.107M249.855 131.523l-20.527 5.348M249.063 136.89l-16.422 4.278M144.988 157.797l-1.73 10.465" stroke-width="1.2" stroke="#000" stroke-miterlimit="10" fill="none"/><path d="M143.258 168.262l-1.735 10.46" stroke-width="1.2" stroke="#f00" stroke-miterlimit="10" fill="none"/><path d="M149.914 158.613l-1.734 10.46" stroke-width="1.2" stroke="#000" stroke-miterlimit="10" fill="none"/><path d="M148.18 169.074l-1.73 10.465" stroke-width="1.2" stroke="#f00" stroke-miterlimit="10" fill="none"/><path d="M147.45 158.203l-8.196-6.73" stroke-width="1.2" stroke="#000" stroke-miterlimit="10" fill="none"/><path d="M139.254 151.473l-8.195-6.73" stroke-width="1.2" stroke="#00f" stroke-miterlimit="10" fill="none"/><path d="M139.988 173.63h8v11h-8zm0 0" fill="#fff"/><use xlink:href="#b" x="139.988" y="182.292" fill="#f00"/><path d="M131.06 144.742l-9.927 3.73" stroke-width="1.2" stroke="#00f" stroke-miterlimit="10" fill="none"/><path d="M121.133 148.473l-9.93 3.734" stroke-width="1.2" stroke="#000" stroke-miterlimit="10" fill="none"/><path d="M124.06 139.242h14v11h-14zm0 0" fill="#fff"/><g fill="#00f"><use xlink:href="#a" x="124.059" y="147.905"/><use xlink:href="#c" x="131.036" y="147.905"/></g><path d="M111.203 152.207l-16.39-13.465M94.813 138.742l-9.926 3.73" stroke-width="1.2" stroke="#000" stroke-miterlimit="10" fill="none"/><path d="M84.887 142.473l-9.926 3.734M74.96 146.207l-8.198-6.73" stroke-width="1.2" stroke="#00f" stroke-miterlimit="10" fill="none"/><path d="M66.762 139.477l-8.196-6.735M71.496 167.133l1.73-10.465" stroke-width="1.2" stroke="#000" stroke-miterlimit="10" fill="none"/><path d="M73.227 156.668l1.734-10.46" stroke-width="1.2" stroke="#00f" stroke-miterlimit="10" fill="none"/><path d="M71.96 140.707h7v11h-7zm0 0" fill="#fff"/><use xlink:href="#a" x="71.961" y="149.37" fill="#00f"/><path d="M58.566 132.742l-19.85 7.465M38.715 140.207l-1.735 10.465" stroke-width="1.2" stroke="#000" stroke-miterlimit="10" fill="none"/><path d="M36.98 150.672l-1.73 10.46M35.25 161.133l8.195 6.734" stroke-width="1.2" stroke="#f00" stroke-miterlimit="10" fill="none"/><path d="M43.445 167.867l8.196 6.73" stroke-width="1.2" stroke="#000" stroke-miterlimit="10" fill="none"/><path d="M31.25 155.633h8v11h-8zm0 0" fill="#fff"/><use xlink:href="#b" x="31.25" y="164.296" fill="#f00"/><path d="M51.64 174.598l19.856-7.465" stroke-width="1.2" stroke="#000" stroke-miterlimit="10" fill="none"/></g></svg>
